!!!COM: Beethoven
!!!OTL: 9 Variationen uber "Quant' e piu bello" von G. Paisiello
!!!Variation: Variation 7 b2
**function	**harm	**kern	**kern
*	*	*clefF4	*clefG2
*	*	*k[f#c#g#]	*k[f#c#g#]
*M2/4	*M2/4	*M2/4	*M2/4
*A:	*A:	*A:	*A:
8T	8I	8r	8e
=185	=185	=185	=185
4.T	4.I	8r	(16d#LL
.	.	.	16e
.	.	(8E	16f#
.	.	.	16eJJ)
.	.	8c#L	8ee'L
8T	8viio/ii	8A#J	([8eeJ
=186	=186	=186	=186
4T	4ii	8BL	8eeL]
.	.	8dJ	8ddJ
4T	4V7b	8G#)	8bL)
.	.	8r	8eJ
=187	=187	=187	=187
4.T	4.I	8r	(16d#LL
.	.	.	16e
.	.	(8An	16f#
.	.	.	16eJJ)
.	.	8c#L	8ee'L
8T	8viio/ii	8A#J	([8eeJ
=188	=188	=188	=188
4T	4ii	8BL	8eeL]
.	.	8dJ	8ddJ
4T	4V7b	8G#)	8bL)
.	.	8r	8eJ
=189	=189	=189	=189
2T	2I	4r	(16d#LL
.	.	.	16e
.	.	.	16f#
.	.	.	16eJJ)
.	.	4A 4c#	8r
.	.	.	8a
=190	=190	=190	=190
2T	2vi	4r	(16g#LL
.	.	.	16a
.	.	.	16b
.	.	.	16aJJ)
.	.	4F# 4A	8r
.	.	.	8cc#
=191	=191	=191	=191
4.D	4.Cc	4r	(16dd#LL
.	.	.	16ee
.	.	.	16dd#
.	.	.	16eeJJ)
.	.	8EL 8A 8c#	8r
8D	8V	8EJ 8G# 8B	8ee
=192	=192	=192	=192
4T	4I	8AL	4a
.	.	8EJ	.
16T	16I	16AA	16r
*-	*-	*-	*-
